backend/app/preview_adjustment/natural.pp3
[Version]
Version=346

[Exposure]
Auto=true
Clip=0.02
HistogramMatching=false
Saturation=0

[White Balance]
Enabled=false

[Sharpening]
Enabled=false

[Color Management]
OutputProfile=RTv4_sRGB
